X:1
T:Longtemps y a, innocente
T:Jean Guyon
T:Source : Livre V de 25 chansons nouvelles à 4 parties---Paris---N.du Chemin---1550. Editor : André Vierendeels (06/03/18) Notes : Original clefs : G2, C2, C3, C4 Original note values have been halved Original note values have been quartered in 3-beat measures Editorial accidentals above the stave  
T:#
T:Longtemps y a, innocente
T:©
T:©
T:©
T:©
C:Jean Guyon
Z:©
%%score [ 1 [ 2 3 ] 4 ]
L:1/8
Q:1/4=120
M:2/2
K:F
V:1 treble nm="Soprano" snm="S"
V:2 treble nm="Alto" snm="A"
V:3 treble-8 nm="Tenor 1" snm="T 1"
V:4 treble-8 nm="Tenor 2" snm="T 2"
V:1
 d8 | d4 c4 | B4 z2 B2 | B2 B2 AGAB | c2 d4 c2 | d8 | z2 d2 d4 | B4 G2 G2 | c2 c2 ABcA | %9
w: Long-|temps y|a, in-|no- cen- te _ _ _|pu- cel- *|le,|que ie|vou- lu con-|dui- re ta _ _ _|
 B2 A4 G2- | G2 F2 G4- | G8 | z2 G2 B4 | c4 d2 d2 | d2 c2 B2 B2 | A8 | z2 F2 G2 B2 |[M:2/4] B2 A2 | %18
w: _ na- cel-|* * le,|_|en ce|lieu cy sans|crain- dre l'as- pre|vent,|sans crain- dre|l'as- pre|
[M:3/4] B4 z2 | B2 B2 B2 | A4 B2 | c4 B2 | A4 G2 |[M:2/2] F4 d4- | d4 d4 | c4 B4 | z2 B2 B2 B2 | %27
w: vent,|qui au che-|min m'a|tour- men-|té sou-|vent, pour|_ en|ce lieu,|no- vis- se|
 AGAB c2 d2- | d2 c2 d4- | d4 z2 d2 |: d4 B4 | G2 G2 c2 c2 | ABcA B2 A2- | A2 G4 F2 | G8 |1 %35
w: ou _ _ _ clerc me|_ ren- dre,|_ car|à plus|grand hon- neur ne|veulx _ _ _ _ pre-|* ten- *|dre,|
[M:2/4] z2 d2 :|2[M:2/2] A2 G4 F2 || G8 |] %38
w: car|(pre)- ten- *|dre.|
V:2
 A8 | B4 G4 | G2 G2 B2 G2 | F2 G2 C2 A2- | A2 G2 A2 A2 | A4 F4 | D4 z2 G2 | G4 E2 C2 | C2 F4 A2 | %9
w: Long-|temps y|a, in- no- cen-|te pu- cel _|_ _ le, que|ie vou-|lu, que|ie vou- lu|con- dui- re|
"^b" GFED E2 C2 | D4 D4 | z2 D2 D4 | E4 G4 | z2 G2 B4- | B2 A2 G2 G2 | F4 z2 C2 | D6 E2 | %17
w: ta _ _ _ _ na-|cel- le,|en ce|lieu cy|sans crain-|* dre l'as- pre|vent, sans|crain- dre|
[M:2/4] F2 F2 |[M:3/4] D4 z2 | D2 D2 E2 | F4 F2 | G4 F2 | F4 D2 |[M:2/2] D4 A4- | A4 B4 | %25
w: l'a- pre|vent,|qui au che-|min m'a|tour- men-|té sou-|vent, pour|en ce|
 G4 G2 G2 | B2 G2 F2 G2 | C2 A4 G2 | A2 A2 A4 | F4 D4 |: z2 G2 G4 | E2 C2 C2 F2- | F2 A2 GFED | %33
w: lieu, no- vis-|se ou clerc me|ren- * *|dre, car à|plus grand,|car à|plus grand hon- neur|_ ne veulx _ _ _|
"^b" E2 C2 D2 DD | D4 B,4 |1[M:2/4] G,4 :|2[M:2/2]"^b" E2 C2 D4 ||"^#" D8 |] %38
w: _ pre- ten- dre, car|à plus|grand,|(pre)- ten- *|dre.|
V:3
 f8 | f4 e4 | d8 | d4 f2 f2 | e2 d2 e4 | d2 d2 d4 | B4 G4 | z2 g2 g2 e2 | c2 c2 f3 e | %9
w: Long-|temps y|a,|in- no- cen-|te pu- cel-|le, que ie|vou- lu,|que ie vou-|lu con- dui- re|
 d2 c2 B2 AG | A4 G4 | z2 G2 B4 | c4 d4 | z2 e2 f4- | f2 e2 d2 d2 | c2 c2 f2 f2 | fedc B4 | %17
w: ta na- cel- * *|* le,|en ce|lieu cy|sans crain-|* dre l'as- pre|vent, sans crain- dre|l'as- * * * *|
[M:2/4] c4 |[M:3/4] B4 z2 | B2 B2 B2 | c4 d2 | e4 d2 | c4 B2 |[M:2/2] A4 f4- | f4 f4 | e4 d4- | %26
w: pre-|vent,-|qui au che-|min m'a|tour- men-|té sou-|vent, pour|en ce|lieu, no-|
 d4 d4 | f2 f2 e2 d2 | e4 d2 d2 | d4 B4 |: G4 z2 g2 | g2 e2 c2 c2 | f3 e d2 c2 | B2 AG A4 | %34
w: * vis-|se ou clerc me|ren- dre, car|à plus|grand, car|à plus grand hon-|neur ne veulx pre-|ten- * * *|
 G2 d2 d4 |1[M:2/4] B4 :|2[M:2/2] B2 AG A4 || G8 |] %38
w: dre, car à|plus|ten- * * *|dre.|
V:4
 d8 | B4 c4 | G4 z2 G2 | B2 G2 F3 G | A2 B2 A4 | D4 z2 d2 | d4 B4 | G2 G2 c2 c2 | F6 F2 | %9
w: Long-|temps y|a, in-|no- cen- te pu-|cel- * *|le, que|ie vou-|lu con- dui- re|ta na-|
"^b" G2 C2 E4 | D4 G4 | z2 G2 G4 | C4 G4 | c4 B4- | B2 c2 G2 B2 | F4 z2 F2 | B2 B2 G4 |[M:2/4] F4 | %18
w: cel- * *|* le,|en ce|lieu cy|sans crain-|* dre l'as- pre|vent, sans|crain- dre m'as-|pre|
[M:3/4] B4 z2 | G2 G2 G2 | F4 D2 | C4 D2 | F4 G2 |[M:2/2] D4 d4- | d4 B4 | c4 G4 | z2 G2 B2 G2 | %27
w: vent,|qui au che-|min m'a|tour- men-|té sou-|vent, pour|_ en|ce lieu,|no- vis- *|
 F3 G A2 B2 | A4 D4 |"^#" z2 d2 d4 |: B4 G2 G2 | c2 c2 F4- | F2 F2 G2 C2 |"^b" E4 D4 | G4 z2 d2 |1 %35
w: se ou clerc me|ren- dre,|car à|plus grand, car|à plus grand|_ hon- neur ne|veulx ren-|dre, car|
[M:2/4] d4 :|2[M:2/2]"^b" E4 D4 || G8 |] %38
w: à|veulx ten-|dre.|

